icons/desktop/16/svg/add-user-16.svg

<svg width="16" height="16" viewBox="0 0 16 16" fill="none" xmlns="http://www.w3.org/2000/svg">
<path fill-rule="evenodd" clip-rule="evenodd" d="M6 8.50098C7.17586 8.50098 8.2817 8.55836 9.30859 8.65234C10.8405 8.79234 11.9999 10.0988 12 11.6367V12.7617C12 13.7736 11.2402 14.6338 10.2354 14.752C8.67735 14.935 7.253 15 6 15C4.45208 15 3.02516 14.901 1.74121 14.749C0.743211 14.631 0 13.7696 0 12.7646V11.6387C0.000167367 10.0878 1.18753 8.78743 2.73242 8.64844C3.91628 8.54046 5.01111 8.50098 6 8.50098ZM6 9.99805C4.95807 9.99805 3.90412 10.0457 2.86719 10.1396C2.10029 10.2096 1.50016 10.8678 1.5 11.6377V12.7637C1.5 13.0167 1.67901 13.2298 1.91699 13.2578C3.26699 13.4178 4.641 13.499 6 13.499C7.35187 13.499 8.7177 13.4187 10.0596 13.2607C10.3066 13.2317 10.5 13.0117 10.5 12.7607V11.6357C10.4999 10.8679 9.91579 10.2125 9.17188 10.1445C8.3844 10.0725 7.58733 10.0271 6.79297 10.0088L6 9.99805Z" fill="black"/>
<path d="M13.125 3C13.5392 3 13.875 3.33579 13.875 3.75V5.125H15.25C15.6642 5.125 16 5.46079 16 5.875C16 6.28921 15.6642 6.625 15.25 6.625H13.875V8C13.875 8.41421 13.5392 8.75 13.125 8.75C12.7108 8.75 12.375 8.41421 12.375 8V6.625H11C10.5858 6.625 10.25 6.28921 10.25 5.875C10.25 5.46079 10.5858 5.125 11 5.125H12.375V3.75C12.375 3.33579 12.7108 3 13.125 3Z" fill="black"/>
<path fill-rule="evenodd" clip-rule="evenodd" d="M6 1C7.726 1 9.125 2.399 9.125 4.125C9.125 5.851 7.726 7.25 6 7.25C4.274 7.25 2.875 5.851 2.875 4.125C2.875 2.399 4.274 1 6 1ZM6 2.5C5.104 2.5 4.375 3.229 4.375 4.125C4.375 5.021 5.104 5.75 6 5.75C6.896 5.75 7.625 5.021 7.625 4.125C7.625 3.229 6.896 2.5 6 2.5Z" fill="black"/>
</svg>

<!-- This Source Code Form is subject to the terms of the Mozilla Public
   - License, v. 2.0. If a copy of the MPL was not distributed with this
   - file, You can obtain one at http://mozilla.org/MPL/2.0/. -->
<svg xmlns="http://www.w3.org/2000/svg" width="16" height="16" fill="context-fill" fill-opacity="context-fill-opacity" viewBox="0 0 16 16">
    <path fill-rule="evenodd" d="M6 8.501c1.176 0 2.282.057 3.309.151 1.532.14 2.69 1.447 2.691 2.985v1.125c0 1.012-.76 1.872-1.765 1.99a36.3 36.3 0 0 1-8.494-.003C.743 14.631 0 13.769 0 12.765v-1.126a3.006 3.006 0 0 1 2.732-2.99A36 36 0 0 1 6 8.5m0 1.497a35 35 0 0 0-3.133.142A1.515 1.515 0 0 0 1.5 11.638v1.126c0 .253.179.466.417.494a34.8 34.8 0 0 0 8.143.003.51.51 0 0 0 .44-.5v-1.125c0-.768-.584-1.423-1.328-1.491a35 35 0 0 0-2.379-.136z" clip-rule="evenodd" />
    <path d="M13.125 3a.75.75 0 0 1 .75.75v1.375h1.375a.75.75 0 0 1 0 1.5h-1.375V8a.75.75 0 0 1-1.5 0V6.625H11a.75.75 0 0 1 0-1.5h1.375V3.75a.75.75 0 0 1 .75-.75" />
    <path fill-rule="evenodd" d="M6 1a3.125 3.125 0 1 1 0 6.25A3.125 3.125 0 0 1 6 1m0 1.5c-.896 0-1.625.729-1.625 1.625S5.104 5.75 6 5.75s1.625-.729 1.625-1.625S6.896 2.5 6 2.5" clip-rule="evenodd" />
</svg>
